images/sensor/carbon-monoxide.svg

<?xml version="1.0" encoding="UTF-8" standalone="no"?>
<svg
   xmlns:dc="http://purl.org/dc/elements/1.1/"
   xmlns:cc="http://creativecommons.org/ns#"
   xmlns:rdf="http://www.w3.org/1999/02/22-rdf-syntax-ns#"
   xmlns:svg="http://www.w3.org/2000/svg"
   xmlns="http://www.w3.org/2000/svg"
   xmlns:sodipodi="http://sodipodi.sourceforge.net/DTD/sodipodi-0.dtd"
   xmlns:inkscape="http://www.inkscape.org/namespaces/inkscape"
   width="185.9641"
   height="180.79999"
   viewBox="0 0 185.9641 180.79999"
   version="1.1"
   xml:space="preserve"
   style="clip-rule:evenodd;fill-rule:evenodd;stroke-linecap:round;stroke-linejoin:round;stroke-miterlimit:1.5"
   id="svg60"
   sodipodi:docname="carbon-monoxide.svg"
   inkscape:version="0.92.5 (0.92.5+69)"><metadata
   id="metadata66"><rdf:RDF><cc:Work
       rdf:about=""><dc:format>image/svg+xml</dc:format><dc:type
         rdf:resource="http://purl.org/dc/dcmitype/StillImage" /></cc:Work></rdf:RDF></metadata><defs
   id="defs64" /><sodipodi:namedview
   pagecolor="#ffffff"
   bordercolor="#666666"
   borderopacity="1"
   objecttolerance="10"
   gridtolerance="10"
   guidetolerance="10"
   inkscape:pageopacity="0"
   inkscape:pageshadow="2"
   inkscape:window-width="825"
   inkscape:window-height="480"
   id="namedview62"
   showgrid="false"
   inkscape:zoom="0.78666667"
   inkscape:cx="133.488"
   inkscape:cy="60.40875"
   inkscape:window-x="38"
   inkscape:window-y="27"
   inkscape:window-maximized="0"
   inkscape:current-layer="svg60" />
    <g
   transform="translate(-17.511998,140.39124)"
   id="g46">
        <g
   transform="translate(10,-149.934)"
   id="g4">
            <path
   d="m 20.056,20.597 -1.437,0.476 -7.317,-7.698 c -1.456,-1.791 1.565,-3.827 2.664,-2.813 l 8.293,6.166 v 1.7 z"
   style="fill:none;stroke:#000000;stroke-width:1.5px"
   id="path2"
   inkscape:connector-curvature="0" />
        </g>
        <g
   transform="translate(10,-149.934)"
   id="g8">
            <path
   d="M 76.91,86.468 C 59.717,62.907 41.558,40.164 22.224,18.418 l -1.96,2.014 C 39.39,41.631 57.312,63.944 74.065,87.339 Z"
   style="fill:none;stroke:#000000;stroke-width:1.5px"
   id="path6"
   inkscape:connector-curvature="0" />
        </g>
        <g
   transform="matrix(0.779826,-0.0750987,0.0750987,0.779826,85.2749,-180.402)"
   id="g12">
            <ellipse
   cx="60.798"
   cy="142.42101"
   rx="5.7750001"
   ry="2.7809999"
   style="fill:none;stroke:#000000;stroke-width:1.90999997px"
   id="ellipse10" />
        </g>
        <g
   transform="matrix(0.779826,-0.0750987,0.0750987,0.779826,122.453,-144.952)"
   id="g16">
            <ellipse
   cx="60.798"
   cy="142.42101"
   rx="5.7750001"
   ry="2.7809999"
   style="fill:none;stroke:#000000;stroke-width:1.90999997px"
   id="ellipse14" />
        </g>
        <g
   transform="matrix(0.779826,-0.0750987,0.0750987,0.779826,11.5992,-112.597)"
   id="g20">
            <ellipse
   cx="60.798"
   cy="142.42101"
   rx="5.7750001"
   ry="2.7809999"
   style="fill:none;stroke:#000000;stroke-width:1.90999997px"
   id="ellipse18" />
        </g>
        <g
   transform="matrix(0.779826,-0.0750987,0.0750987,0.779826,-18.8237,-150.121)"
   id="g24">
            <ellipse
   cx="60.798"
   cy="142.42101"
   rx="5.7750001"
   ry="2.7809999"
   style="fill:none;stroke:#000000;stroke-width:1.90999997px"
   id="ellipse22" />
        </g>
        <g
   transform="translate(10,-149.934)"
   id="g28">
            <path
   d="m 30.991,116.884 14.137,-18.463 68.241,-19.836 34.279,3.462 18.096,16.374 -9.782,18.463 -73.715,22.393 -35.367,-4.599 z"
   style="fill:none;stroke:#000000;stroke-width:1.5px"
   id="path26"
   inkscape:connector-curvature="0" />
        </g>
        <g
   transform="translate(10,-149.934)"
   id="g32">
            <path
   d="m 21,142 -3,-31 c -0.226,-4.736 2.522,-7.455 7,-9 L 128,72 c 6.178,-1.353 11.367,-0.691 15,2 l 39,34 c 1.347,1.191 2.052,2.517 2,4 v 6 l 8,7 c 0.888,1.042 1.045,2.546 0,5 l -9,19 c -1.143,1.788 -2.882,3.058 -5,4 L 70,189 c -2.706,0.901 -7.305,0.625 -11,0 l -31,-5 c -2.149,-0.491 -4.237,-1.178 -6,-3 L 9,162 c -1.049,-1.674 -0.985,-3.298 0,-4.882 z"
   style="fill:none;stroke:#000000;stroke-width:1.5px"
   id="path30"
   inkscape:connector-curvature="0" />
        </g>
        <g
   transform="translate(10,-149.934)"
   id="g36">
            <path
   d="M 21.172,142.226 56,188"
   style="fill:none;stroke:#000000;stroke-width:1.5px;stroke-linecap:square"
   id="path34"
   inkscape:connector-curvature="0" />
        </g>
        <g
   transform="translate(10,-149.934)"
   id="g40">
            <path
   d="m 184,118 1.283,26.18"
   style="fill:none;stroke:#000000;stroke-width:1.5px"
   id="path38"
   inkscape:connector-curvature="0" />
        </g>
        <g
   transform="translate(10,-149.934)"
   id="g44">
            <path
   d="m 18,113 29,36 c 3.165,4.037 12.605,4.783 19,3 l 113,-35 c 2.785,-0.905 4.36,-2.933 5,-6"
   style="fill:none;stroke:#000000;stroke-width:1.5px;stroke-linecap:butt"
   id="path42"
   inkscape:connector-curvature="0" />
        </g>
    </g>
    <g
   transform="matrix(0.633041,-0.060963,0.129868,1.34855,103.378,-59.563963)"
   id="g50">
        <ellipse
   cx="60.798"
   cy="142.42101"
   rx="5.7750001"
   ry="2.7809999"
   style="fill:none;stroke:#000000;stroke-width:1.90999997px"
   id="ellipse48" />
    </g>
    <g
   transform="matrix(0.633041,-0.060963,0.129868,1.34855,15.378402,-30.563946)"
   id="g54">
        <ellipse
   cx="60.798"
   cy="142.42101"
   rx="5.7750001"
   ry="2.7809999"
   style="fill:none;stroke:#000000;stroke-width:1.90999997px"
   id="ellipse52" />
    </g>
    <g
   transform="matrix(0.327078,0.2865,0.129868,1.34855,-10.901788,-70.211863)"
   id="g58">
        <ellipse
   cx="60.798"
   cy="142.42101"
   rx="5.7750001"
   ry="2.7809999"
   style="fill:none;stroke:#000000;stroke-width:1.90999997px"
   id="ellipse56" />
    </g>
</svg>

<?xml version="1.0" encoding="UTF-8" standalone="no"?>
<!DOCTYPE svg PUBLIC "-//W3C//DTD SVG 1.1//EN" "http://www.w3.org/Graphics/SVG/1.1/DTD/svg11.dtd">
<svg width="100%" height="100%" viewBox="0 0 300 300" version="1.1" xmlns="http://www.w3.org/2000/svg" xmlns:xlink="http://www.w3.org/1999/xlink" xml:space="preserve" xmlns:serif="http://www.serif.com/" style="fill-rule:evenodd;clip-rule:evenodd;stroke-linecap:round;stroke-linejoin:round;stroke-miterlimit:1.5;">
    <g transform="matrix(1,0,0,1,-1,170)">
        <g transform="matrix(1,0,0,1,10,-149.934)">
            <path d="M20.056,20.597L18.619,21.073L11.302,13.375C9.846,11.584 12.867,9.548 13.966,10.562L22.259,16.728L22.259,18.428L20.056,20.597Z" style="fill:none;stroke:black;stroke-width:1.5px;"/>
        </g>
        <g transform="matrix(1,0,0,1,10,-149.934)">
            <path d="M76.91,86.468C59.717,62.907 41.558,40.164 22.224,18.418L20.264,20.432C39.39,41.631 57.312,63.944 74.065,87.339L76.91,86.468Z" style="fill:none;stroke:black;stroke-width:1.5px;"/>
        </g>
        <g transform="matrix(0.779826,-0.0750987,0.0750987,0.779826,85.2749,-180.402)">
            <ellipse cx="60.798" cy="142.421" rx="5.775" ry="2.781" style="fill:none;stroke:black;stroke-width:1.91px;"/>
        </g>
        <g transform="matrix(0.779826,-0.0750987,0.0750987,0.779826,122.453,-144.952)">
            <ellipse cx="60.798" cy="142.421" rx="5.775" ry="2.781" style="fill:none;stroke:black;stroke-width:1.91px;"/>
        </g>
        <g transform="matrix(0.779826,-0.0750987,0.0750987,0.779826,11.5992,-112.597)">
            <ellipse cx="60.798" cy="142.421" rx="5.775" ry="2.781" style="fill:none;stroke:black;stroke-width:1.91px;"/>
        </g>
        <g transform="matrix(0.779826,-0.0750987,0.0750987,0.779826,-18.8237,-150.121)">
            <ellipse cx="60.798" cy="142.421" rx="5.775" ry="2.781" style="fill:none;stroke:black;stroke-width:1.91px;"/>
        </g>
        <g transform="matrix(1,0,0,1,10,-149.934)">
            <path d="M30.991,116.884L45.128,98.421L113.369,78.585L147.648,82.047L165.744,98.421L155.962,116.884L82.247,139.277L46.88,134.678L30.991,116.884Z" style="fill:none;stroke:black;stroke-width:1.5px;"/>
        </g>
        <g transform="matrix(1,0,0,1,10,-149.934)">
            <path d="M21,142L18,111C17.774,106.264 20.522,103.545 25,102L128,72C134.178,70.647 139.367,71.309 143,74L182,108C183.347,109.191 184.052,110.517 184,112L184,118L192,125C192.888,126.042 193.045,127.546 192,130L183,149C181.857,150.788 180.118,152.058 178,153L70,189C67.294,189.901 62.695,189.625 59,189L28,184C25.851,183.509 23.763,182.822 22,181L9,162C7.951,160.326 8.015,158.702 9,157.118L21,142Z" style="fill:none;stroke:black;stroke-width:1.5px;"/>
        </g>
        <g transform="matrix(1,0,0,1,10,-149.934)">
            <path d="M21.172,142.226L56,188" style="fill:none;stroke:black;stroke-width:1.5px;stroke-linecap:square;"/>
        </g>
        <g transform="matrix(1,0,0,1,10,-149.934)">
            <path d="M184,118L185.283,144.18" style="fill:none;stroke:black;stroke-width:1.5px;"/>
        </g>
        <g transform="matrix(1,0,0,1,10,-149.934)">
            <path d="M18,113L47,149C50.165,153.037 59.605,153.783 66,152L179,117C181.785,116.095 183.36,114.067 184,111" style="fill:none;stroke:black;stroke-width:1.5px;stroke-linecap:butt;"/>
        </g>
    </g>
    <g transform="matrix(0.633041,-0.060963,0.129868,1.34855,119.89,-29.9552)">
        <ellipse cx="60.798" cy="142.421" rx="5.775" ry="2.781" style="fill:none;stroke:black;stroke-width:1.91px;"/>
    </g>
    <g transform="matrix(0.633041,-0.060963,0.129868,1.34855,31.8904,-0.955183)">
        <ellipse cx="60.798" cy="142.421" rx="5.775" ry="2.781" style="fill:none;stroke:black;stroke-width:1.91px;"/>
    </g>
    <g transform="matrix(0.327078,0.2865,0.129868,1.34855,5.61021,-40.6031)">
        <ellipse cx="60.798" cy="142.421" rx="5.775" ry="2.781" style="fill:none;stroke:black;stroke-width:1.91px;"/>
    </g>
</svg>
